src/assets/icons/muscles_parts/press_oblique.svg

<svg id="Layer_2" enable-background="new 0 0 512 512" viewBox="0 0 512 512" xmlns="http://www.w3.org/2000/svg"><g><g><path d="m384.817 4.612c-.429 0-.858.034-1.284.104l-76.598 12.454c-17.194 2.796-34.744 4.213-52.163 4.213s-34.969-1.418-52.163-4.213l-76.599-12.455c-.426-.069-.855-.104-1.284-.104-.811 0-1.62.123-2.398.368-2.203.692-54.126 17.43-68.852 59.146-12.363 35.022-5.801 71.956-2.555 85.742-10.916 8.808-35.98 34.384-37.773 84.578-.051 1.437.285 2.861.975 4.122l52.646 96.326c1.384 2.532 4.023 4.122 6.908 4.163.037.001.075.001.112.001 2.843 0 5.475-1.509 6.91-3.969 19.521-33.465 19.789-63.519 19.211-73.545l15.19-19.627c2.29 3.812 5.327 8.26 9.282 13.009 8.242 9.897 11.749 23.036 9.62 36.046l-8.755 53.505c-.078.475-.112.956-.104 1.436l1.463 80.921c.027 1.491.47 2.944 1.279 4.196.487.754 12.166 18.666 33.232 36.696 12.433 10.641 25.595 19.136 39.12 25.247 17.086 7.72 34.777 11.635 52.583 11.635 17.78 0 35.654-3.904 53.125-11.604 13.818-6.09 27.406-14.555 40.388-25.16 21.999-17.971 34.625-35.809 35.152-36.56.917-1.306 1.421-2.856 1.45-4.451l1.463-80.921c.009-.481-.026-.962-.104-1.436l-8.755-53.505c-2.129-13.011 1.377-26.149 9.62-36.046 3.956-4.75 6.993-9.198 9.283-13.009l15.19 19.627c-.577 10.026-.31 40.081 19.211 73.545 1.435 2.46 4.068 3.969 6.91 3.969.037 0 .074 0 .112-.001 2.885-.04 5.525-1.631 6.908-4.163l52.646-96.326c.689-1.261 1.026-2.685.975-4.122-1.792-50.194-26.857-75.77-37.773-84.578 3.246-13.786 9.808-50.72-2.555-85.742-14.725-41.714-66.648-58.452-68.851-59.145-.778-.244-1.587-.367-2.398-.367z" fill="#484f69"/></g><g><path d="m169.029 32.674s-37.238-18.619-63.422-6.982-57.021 31.42-41.311 121.607c0 0 41.311-30.838 47.13-53.53 5.818-22.693 30.838-59.35 57.603-61.095z" fill="#9fabce"/></g><g><path d="m241.223 54.825c4.666 2.754 7.52 7.767 7.52 13.185v46.72c0 8.704-6.048 15.996-14.171 17.901-4.693 1.101-9.383 2.22-13.953 3.754l-49.851 16.732c-9.613 0-18.681-4.489-24.464-12.168-6.153-8.172-16.775-17.888-33.478-20.387-3.507-.525-5.224-4.54-3.125-7.399 5.659-7.711 14.206-20.645 16.854-31.613 4.073-16.874 36.075-45.966 58.185-47.712 16.315-1.289 43.406 13.269 56.483 20.987z" fill="#9fabce"/></g><g><path d="m108.786 141.749v28.823s-13.09 70.544-48.363 97.308c-5.13 3.892-12.553.702-13.298-5.694l-4.094-35.137c-.937-8.045.134-16.197 3.117-23.727l19.893-50.205s22.11-14.546 31.42-22.692c6.255 0 11.325 5.07 11.325 11.324z" fill="#9fabce"/></g><g><path d="m47.196 175.413c1.622-1.285 3.836.622 2.83 2.43-4.655 8.367-11.702 22.889-12.824 35.847-1.105 12.77-.772 30.815-.404 41.857.078 2.346-3.072 3.176-4.159 1.095l-5.407-10.35c-2.304-4.41-3.429-9.341-3.224-14.312.566-13.726 4.161-41.496 23.188-56.567z" fill="#9fabce"/></g><g><path d="m110.973 196.348v8.785c0 3.786-.666 7.54-1.997 11.084-2.851 7.595-8.865 20.797-18.739 29.621-1.047.936-2.627-.261-2.01-1.523 4.655-9.513 14.642-30.743 20.07-48.378.463-1.5 2.676-1.16 2.676.411z" fill="#9fabce"/></g><g fill="#ff8564"><path d="m248.742 205.469v38.609c0 2.916-2.364 5.279-5.279 5.279h-34.61c-3.408 0-6.557-1.817-8.262-4.767l-4.026-6.963c-3.769-6.519-2.219-14.806 3.652-19.522 9.015-7.244 23.896-16.403 42.774-17.896 3.092-.245 5.751 2.158 5.751 5.26z"/><path d="m242.359 326.162h-24.602c-6.239 0-11.296-5.058-11.296-11.296v-44.872c0-6.239 5.058-11.296 11.296-11.296h24.602c3.526 0 6.383 2.858 6.383 6.383v54.697c0 3.526-2.858 6.384-6.383 6.384z"/><path d="m243.667 333.428h-23.593c-6.563 0-11.883 5.32-11.883 11.883v21.057c0 32.231 7.746 63.991 22.585 92.603l8.385 16.168c2.447 4.718 9.581 2.978 9.581-2.337v-134.299c0-2.803-2.272-5.075-5.075-5.075z"/></g><path d="m156.333 228.805 15.916 18.076c6.706 7.616 10.405 17.415 10.405 27.563v22.063c0 1.734-2.036 2.668-3.35 1.536l-13.895-11.965c-8.016-6.902-12.625-16.955-12.625-27.533v-28.4c0-1.869 2.314-2.743 3.549-1.34z" fill="#FF4858"/><path d="m158.925 291.264 15.766 14.607c5.078 4.704 7.964 11.313 7.964 18.234v16.516c0 3.311-4.049 4.917-6.318 2.506l-16.227-17.241c-4.705-4.999-7.325-11.605-7.325-18.47v-13.469c-.001-3.191 3.8-4.851 6.14-2.683z" fill="#FF4858"/><path d="m154.294 332.07 12.614 13.48c17.793 19.013 28.047 43.859 28.845 69.887l.311 10.155c.135 4.417-5.358 6.548-8.237 3.196l-31.21-36.337c-7.949-9.255-11.874-21.3-10.905-33.461l1.962-24.605c.264-3.32 4.344-4.747 6.62-2.315z" fill="#FF4858"/><g><path d="m340.515 32.674s37.238-18.619 63.422-6.982c26.183 11.637 57.021 31.42 41.311 121.607 0 0-41.311-30.838-47.13-53.53-5.818-22.693-30.838-59.35-57.603-61.095z" fill="#9fabce"/></g><g><path d="m268.321 54.825c-4.666 2.754-7.52 7.767-7.52 13.185v46.72c0 8.704 6.048 15.996 14.171 17.901 4.694 1.101 9.383 2.22 13.953 3.754l49.851 16.732c9.613 0 18.681-4.489 24.464-12.168 6.153-8.172 16.775-17.888 33.478-20.387 3.507-.525 5.224-4.54 3.125-7.399-5.659-7.711-14.206-20.645-16.854-31.613-4.073-16.874-36.075-45.966-58.185-47.712-16.316-1.289-43.406 13.269-56.483 20.987z" fill="#9fabce"/></g><g><path d="m400.758 141.749v28.823s13.09 70.544 48.363 97.308c5.13 3.892 12.553.702 13.298-5.694l4.094-35.137c.937-8.045-.134-16.197-3.117-23.727l-19.893-50.205s-22.11-14.546-31.42-22.692c-6.255 0-11.325 5.07-11.325 11.324z" fill="#9fabce"/></g><g><path d="m462.348 175.413c-1.622-1.285-3.836.622-2.83 2.43 4.655 8.367 11.702 22.889 12.824 35.847 1.105 12.77.772 30.815.404 41.857-.078 2.346 3.073 3.176 4.159 1.095l5.407-10.35c2.304-4.41 3.429-9.341 3.224-14.312-.566-13.726-4.161-41.496-23.188-56.567z" fill="#9fabce"/></g><g><path d="m398.571 196.348v8.785c0 3.786.666 7.54 1.997 11.084 2.851 7.595 8.865 20.797 18.739 29.621 1.048.936 2.627-.261 2.01-1.523-4.655-9.513-14.642-30.743-20.07-48.378-.464-1.5-2.676-1.16-2.676.411z" fill="#9fabce"/></g><path d="m260.802 205.469v38.609c0 2.916 2.364 5.279 5.279 5.279h34.61c3.408 0 6.557-1.817 8.262-4.767l4.026-6.963c3.769-6.519 2.219-14.806-3.652-19.522-9.015-7.244-23.896-16.403-42.774-17.896-3.092-.245-5.751 2.158-5.751 5.26z" fill="#ff8564"/><path d="m267.185 326.162h24.602c6.239 0 11.296-5.058 11.296-11.296v-44.872c0-6.239-5.058-11.296-11.296-11.296h-24.602c-3.526 0-6.383 2.858-6.383 6.383v54.697c0 3.526 2.858 6.384 6.383 6.384z" fill="#ff8564"/><path d="m265.877 333.428h23.593c6.563 0 11.883 5.32 11.883 11.883v21.057c0 32.231-7.746 63.991-22.585 92.603l-8.385 16.168c-2.447 4.718-9.581 2.978-9.581-2.337v-134.299c0-2.803 2.272-5.075 5.075-5.075z" fill="#ff8564"/><path d="m353.21 228.805-15.916 18.076c-6.706 7.616-10.405 17.415-10.405 27.563v22.063c0 1.734 2.036 2.668 3.35 1.536l13.895-11.965c8.016-6.902 12.625-16.955 12.625-27.533v-28.4c0-1.869-2.314-2.743-3.549-1.34z" fill="#FF4858"/><path d="m350.619 291.264-15.766 14.607c-5.078 4.704-7.964 11.313-7.964 18.234v16.516c0 3.311 4.049 4.917 6.318 2.506l16.227-17.241c4.705-4.999 7.325-11.605 7.325-18.47v-13.469c0-3.191-3.8-4.851-6.14-2.683z" fill="#FF4858"/><path d="m355.25 332.07-12.614 13.48c-17.793 19.013-28.047 43.859-28.845 69.887l-.311 10.155c-.135 4.417 5.358 6.548 8.237 3.196l31.21-36.337c7.949-9.255 11.874-21.3 10.905-33.461l-1.962-24.605c-.264-3.32-4.345-4.747-6.62-2.315z" fill="#FF4858"/><path d="m248.496 148.901v36.119c0 2.743-2.006 5.133-4.863 5.794l-20.888 4.832c-10.774 2.492-27.945 10.577-27.945 10.577-5.973 6.163-36.108-43.292-12.473-43.292l59.763-20c3.538 0 6.406 2.673 6.406 5.97z" fill="#ff8564"/><path d="m260.555 148.901v36.119c0 2.743 2.006 5.133 4.863 5.794l20.888 4.832c10.774 2.492 27.945 10.577 27.945 10.577 5.973 6.163 37.244-43.292 12.473-43.292l-59.763-20c-3.537 0-6.406 2.673-6.406 5.97z" fill="#ff8564"/></g></svg>

<svg  viewBox="0 0 512 512" fill="none" xmlns="http://www.w3.org/2000/svg">
<path d="M384.817 4.61184C384.388 4.61184 383.959 4.64584 383.533 4.71584L306.935 17.1698C289.741 19.9658 272.191 21.3828 254.772 21.3828C237.353 21.3828 219.803 19.9648 202.609 17.1698L126.01 4.71484C125.584 4.64584 125.155 4.61084 124.726 4.61084C123.915 4.61084 123.106 4.73384 122.328 4.97884C120.125 5.67084 68.202 22.4088 53.476 64.1248C41.113 99.1468 47.675 136.081 50.921 149.867C40.005 158.675 14.941 184.251 13.148 234.445C13.097 235.882 13.433 237.306 14.123 238.567L66.769 334.893C68.153 337.425 70.792 339.015 73.677 339.056C73.714 339.057 73.752 339.057 73.789 339.057C76.632 339.057 79.264 337.548 80.699 335.088C100.22 301.623 100.488 271.569 99.91 261.543L115.1 241.916C117.39 245.728 120.427 250.176 124.382 254.925C132.624 264.822 136.131 277.961 134.002 290.971L125.247 344.476C125.169 344.951 125.135 345.432 125.143 345.912L126.606 426.833C126.633 428.324 127.076 429.777 127.885 431.029C128.372 431.783 140.051 449.695 161.117 467.725C173.55 478.366 186.712 486.861 200.237 492.972C217.323 500.692 235.014 504.607 252.82 504.607C270.6 504.607 288.474 500.703 305.945 493.003C319.763 486.913 333.351 478.448 346.333 467.843C368.332 449.872 380.958 432.034 381.485 431.283C382.402 429.977 382.906 428.427 382.935 426.832L384.398 345.911C384.407 345.43 384.372 344.949 384.294 344.475L375.539 290.97C373.41 277.959 376.916 264.821 385.159 254.924C389.115 250.174 392.152 245.726 394.442 241.915L409.632 261.542C409.055 271.568 409.322 301.623 428.843 335.087C430.278 337.547 432.911 339.056 435.753 339.056C435.79 339.056 435.827 339.056 435.865 339.055C438.75 339.015 441.39 337.424 442.773 334.892L495.419 238.566C496.108 237.305 496.445 235.881 496.394 234.444C494.602 184.25 469.537 158.674 458.621 149.866C461.867 136.08 468.429 99.1458 456.066 64.1238C441.341 22.4098 389.418 5.67184 387.215 4.97884C386.437 4.73484 385.628 4.61184 384.817 4.61184Z" fill="#484F69"/>
<path d="M169.029 32.674C169.029 32.674 131.791 14.055 105.607 25.692C79.423 37.329 48.586 57.112 64.296 147.299C64.296 147.299 105.607 116.461 111.426 93.769C117.244 71.076 142.264 34.419 169.029 32.674Z" fill="#9FABCE"/>
<path d="M241.223 54.825C245.889 57.579 248.743 62.592 248.743 68.01V114.73C248.743 123.434 242.695 130.726 234.572 132.631C229.879 133.732 225.189 134.851 220.619 136.385L170.768 153.117C161.155 153.117 152.087 148.628 146.304 140.949C140.151 132.777 129.529 123.061 112.826 120.562C109.319 120.037 107.602 116.022 109.701 113.163C115.36 105.452 123.907 92.518 126.555 81.55C130.628 64.676 162.63 35.584 184.74 33.838C201.055 32.549 228.146 47.107 241.223 54.825Z" fill="#9FABCE"/>
<path d="M108.786 141.749V170.572C108.786 170.572 95.696 241.116 60.423 267.88C55.293 271.772 47.87 268.582 47.125 262.186L43.031 227.049C42.094 219.004 43.165 210.852 46.148 203.322L66.041 153.117C66.041 153.117 88.151 138.571 97.461 130.425C103.716 130.425 108.786 135.495 108.786 141.749Z" fill="#9FABCE"/>
<path d="M47.196 175.413C48.818 174.128 51.032 176.035 50.026 177.843C45.371 186.21 38.324 200.732 37.202 213.69C36.097 226.46 36.43 244.505 36.798 255.547C36.876 257.893 33.726 258.723 32.639 256.642L27.232 246.292C24.928 241.882 23.803 236.951 24.008 231.98C24.574 218.254 28.169 190.484 47.196 175.413Z" fill="#9FABCE"/>
<path d="M110.973 196.348V205.133C110.973 208.919 110.307 212.673 108.976 216.217C106.125 223.812 100.111 237.014 90.237 245.838C89.19 246.774 87.61 245.577 88.227 244.315C92.882 234.802 102.869 213.572 108.297 195.937C108.76 194.437 110.973 194.777 110.973 196.348Z" fill="#9FABCE"/>
<path d="M248.742 205.469V244.078C248.742 246.994 246.378 249.357 243.463 249.357H208.853C205.445 249.357 202.296 247.54 200.591 244.59L196.565 237.627C192.796 231.108 194.346 222.821 200.217 218.105C209.232 210.861 224.113 201.702 242.991 200.209C246.083 199.964 248.742 202.367 248.742 205.469Z" fill="#9FABCE"/>
<path d="M242.359 326.162H217.757C211.518 326.162 206.461 321.104 206.461 314.866V269.994C206.461 263.755 211.519 258.698 217.757 258.698H242.359C245.885 258.698 248.742 261.556 248.742 265.081V319.778C248.742 323.304 245.884 326.162 242.359 326.162Z" fill="#9FABCE"/>
<path d="M243.667 333.428H220.074C213.511 333.428 208.191 338.748 208.191 345.311V366.368C208.191 398.599 215.937 430.359 230.776 458.971L239.161 475.139C241.608 479.857 248.742 478.117 248.742 472.802V338.503C248.742 335.7 246.47 333.428 243.667 333.428Z" fill="#9FABCE"/>
<path d="M156.333 228.805L172.249 246.881C178.955 254.497 182.654 264.296 182.654 274.444V296.507C182.654 298.241 180.618 299.175 179.304 298.043L165.409 286.078C157.393 279.176 152.784 269.123 152.784 258.545V230.145C152.784 228.276 155.098 227.402 156.333 228.805Z" fill="#FF4858"/>
<path d="M158.925 291.264L174.691 305.871C179.769 310.575 182.655 317.184 182.655 324.105V340.621C182.655 343.932 178.606 345.538 176.337 343.127L160.11 325.886C155.405 320.887 152.785 314.281 152.785 307.416V293.947C152.784 290.756 156.585 289.096 158.925 291.264Z" fill="#FF4858"/>
<path d="M154.294 332.07L166.908 345.55C184.701 364.563 194.955 389.409 195.753 415.437L196.064 425.592C196.199 430.009 190.706 432.14 187.827 428.788L156.617 392.451C148.668 383.196 144.743 371.151 145.712 358.99L147.674 334.385C147.938 331.065 152.018 329.638 154.294 332.07Z" fill="#FF4858"/>
<path d="M340.515 32.674C340.515 32.674 377.753 14.055 403.937 25.692C430.12 37.329 460.958 57.112 445.248 147.299C445.248 147.299 403.937 116.461 398.118 93.769C392.3 71.076 367.28 34.419 340.515 32.674Z" fill="#9FABCE"/>
<path d="M268.321 54.825C263.655 57.579 260.801 62.592 260.801 68.01V114.73C260.801 123.434 266.849 130.726 274.972 132.631C279.666 133.732 284.355 134.851 288.925 136.385L338.776 153.117C348.389 153.117 357.457 148.628 363.24 140.949C369.393 132.777 380.015 123.061 396.718 120.562C400.225 120.037 401.942 116.022 399.843 113.163C394.184 105.452 385.637 92.518 382.989 81.55C378.916 64.676 346.914 35.584 324.804 33.838C308.488 32.549 281.398 47.107 268.321 54.825Z" fill="#9FABCE"/>
<path d="M400.758 141.749V170.572C400.758 170.572 413.848 241.116 449.121 267.88C454.251 271.772 461.674 268.582 462.419 262.186L466.513 227.049C467.45 219.004 466.379 210.852 463.396 203.322L443.503 153.117C443.503 153.117 421.393 138.571 412.083 130.425C405.828 130.425 400.758 135.495 400.758 141.749Z" fill="#9FABCE"/>
<path d="M462.348 175.413C460.726 174.128 458.512 176.035 459.518 177.843C464.173 186.21 471.22 200.732 472.342 213.69C473.447 226.46 473.114 244.505 472.746 255.547C472.668 257.893 475.819 258.723 476.905 256.642L482.312 246.292C484.616 241.882 485.741 236.951 485.536 231.98C484.97 218.254 481.375 190.484 462.348 175.413Z" fill="#9FABCE"/>
<path d="M398.571 196.348V205.133C398.571 208.919 399.237 212.673 400.568 216.217C403.419 223.812 409.433 237.014 419.307 245.838C420.355 246.774 421.934 245.577 421.317 244.315C416.662 234.802 406.675 213.572 401.247 195.937C400.783 194.437 398.571 194.777 398.571 196.348Z" fill="#9FABCE"/>
<path d="M260.802 205.469V244.078C260.802 246.994 263.166 249.357 266.081 249.357H300.691C304.099 249.357 307.248 247.54 308.953 244.59L312.979 237.627C316.748 231.108 315.198 222.821 309.327 218.105C300.312 210.861 285.431 201.702 266.553 200.209C263.461 199.964 260.802 202.367 260.802 205.469Z" fill="#9FABCE"/>
<path d="M267.185 326.162H291.787C298.026 326.162 303.083 321.104 303.083 314.866V269.994C303.083 263.755 298.025 258.698 291.787 258.698H267.185C263.659 258.698 260.802 261.556 260.802 265.081V319.778C260.802 323.304 263.66 326.162 267.185 326.162Z" fill="#9FABCE"/>
<path d="M265.877 333.428H289.47C296.033 333.428 301.353 338.748 301.353 345.311V366.368C301.353 398.599 293.607 430.359 278.768 458.971L270.383 475.139C267.936 479.857 260.802 478.117 260.802 472.802V338.503C260.802 335.7 263.074 333.428 265.877 333.428Z" fill="#9FABCE"/>
<path d="M353.21 228.805L337.294 246.881C330.588 254.497 326.889 264.296 326.889 274.444V296.507C326.889 298.241 328.925 299.175 330.239 298.043L344.134 286.078C352.15 279.176 356.759 269.123 356.759 258.545V230.145C356.759 228.276 354.445 227.402 353.21 228.805Z" fill="#FF4858"/>
<path d="M350.619 291.264L334.853 305.871C329.775 310.575 326.889 317.184 326.889 324.105V340.621C326.889 343.932 330.938 345.538 333.207 343.127L349.434 325.886C354.139 320.887 356.759 314.281 356.759 307.416V293.947C356.759 290.756 352.959 289.096 350.619 291.264Z" fill="#FF4858"/>
<path d="M355.25 332.07L342.636 345.55C324.843 364.563 314.589 389.409 313.791 415.437L313.48 425.592C313.345 430.009 318.838 432.14 321.717 428.788L352.927 392.451C360.876 383.196 364.801 371.151 363.832 358.99L361.87 334.385C361.606 331.065 357.525 329.638 355.25 332.07Z" fill="#FF4858"/>
<path d="M248.496 148.901V185.02C248.496 187.763 246.49 190.153 243.633 190.814L222.745 195.646C211.971 198.138 194.8 206.223 194.8 206.223C188.827 212.386 158.692 162.931 182.327 162.931L242.09 142.931C245.628 142.931 248.496 145.604 248.496 148.901Z" fill="#9FABCE"/>
<path d="M260.555 148.901V185.02C260.555 187.763 262.561 190.153 265.418 190.814L286.306 195.646C297.08 198.138 314.251 206.223 314.251 206.223C320.224 212.386 351.495 162.931 326.724 162.931L266.961 142.931C263.424 142.931 260.555 145.604 260.555 148.901Z" fill="#9FABCE"/>
</svg>
